X:1
T:Title
%%score { ( 1 4 ) | ( 2 3 ) }
L:1/8
M:6/8
K:Eb
V:1 treble nm="Grand Piano"
V:4 treble 
V:2 bass 
V:3 bass 
V:1
 z3[Q:1/4=100] G2 G | [FB]2 [FB] [Ge]2 [EB] | .[A,CA]2 [B,EG] .[B,EF]2 [A,EA] | z3 .A3 | %4
[M:3/8] F3 | z FG |[M:3/4] FG AG AB | cd ee dc | z2 z .[EF]3 | [G,E]6 | B2- [EGB-] [DFB]2 [DAB] | %11
 B2- [GB-] [FB-]2 [FB] | eB cB A[B,EG] | .E2 z2 z2 | F6 | FG [CF=A]B z [Fd] | %16
 G=A [B,FB] [CEB]2 [CEA] | [B,DB]6 | B2- [EGB-] [DFB]2 [DAB] | B2- [GB-] [FB]2 B | BA GG A[_DEB] | %21
 [Ec]6 | e3 .e3 | e3 e3 | z F [B,EG] [EF]2 [A,DF] |[M:9/16] [G,E]4- [G,E]/ |] %26
V:2
 z3 [E,B,E]2 [E,B,E] | [D,B,]2 [D,B,] [C,C]2 G, | z DE, z DC, | B,,E,G, z A,[E,B,E] | %4
[M:3/8] [B,D]3 | [G,B,]2 [E,B,E] |[M:3/4] z E [F,CE] [G,B,E]2 [E,G,E] | %7
 [A,E]2 [G,B,E] [F,C]2 [A,E] | [G,B,E]2 .E,2 B,B,, | E,6 | E,F, G,A, G,F, | %11
 E,F, [G,E] [B,D]2 [A,B,] | [G,B,E]2 [A,E][B,E]- [F,B,E]E, | z D C D3 | z B, F,B,, C,[D,B,D] | %15
 [E,=A,C]2 .E,2[K:treble] c[K:bass][B,,B,] | [E,B,E]2 D, C,2 F, | B,,6 | E,F, G,A, G,F, | %19
 E,F,[K:treble] [G,E] [B,D]2 [A,DF] | E-[F,E] [E,B,E][_DE]- [F,DE]G, | A,2 G, F,3 | %22
 E-[F,E] [E,G,]E- [G,E][F,A,E] | E2 z .E3 | G,E, .C,2 B,B,, |[M:9/16] E,4- E,/ |] %26
V:3
 x6 | x6 | .F,3 .B,,3 | z3 .F,3 |[M:3/8] x3 | x3 |[M:3/4] [A,C]2 z2 z2 | x6 | z2 z .A,,3 | x6 | %10
 x6 | x6 | z2 z G, z2 | B,,6 | F,2 z2 z2 | z2 z .D,3[K:treble][K:bass] | x6 | x6 | x6 | %19
 x2[K:treble] x4 | .G,2 z E, z2 | x6 | .[G,B,]2 z [A,C] z2 | [G,B,]F, [E,G,][A,C] G,F, | %24
 z2 z .A,,3 |[M:9/16] x9/2 |] %26
V:4
 x6 | x6 | x6 | [B,EG]2 [B,EB] [CE]DG |[M:3/8] x3 | E2 z |[M:3/4] x6 | z2 z .A3 | %8
 BA [B,EG]C z [A,DF] | x6 | [EG]2 z2 z2 | [EG]2 z2 z2 | x6 | [B,F]6 | [A,C]D [CE] [B,D]2 F | %15
 z2 z .[B,F]3 | x6 | x6 | [EG]2 z2 z2 | [EG]2 z2 z2 | x6 | C2 B, A,3 | z A, .E2 B,e | %23
 z A, .E2 B,[A,E] | [B,E]2 z C z2 |[M:9/16] x9/2 |] %26

